public/logos/gatorade.svg

<svg width="977" height="200" viewBox="0 0 977 200" fill="none" xmlns="http://www.w3.org/2000/svg">
<path d="M805.85 199.35C811.419 185.176 851.925 82.851 851.925 82.851L830.366 87.8258L866.654 24.9686L971.258 0L945.722 30.6499L976.637 23.3277L805.85 199.35V199.35Z" fill="url(#paint0_linear_36_259)"/>
<path d="M643.684 45.7322H601.156V63.4241H610.893V127.603H601.156V145.295H643.684C672.806 145.295 693.446 126.124 693.446 95.5137C693.446 64.9031 672.801 45.7322 643.684 45.7322ZM640.575 127.603H636.16V63.4241H640.575C656.806 63.4241 666.935 76.4101 666.935 95.5137C666.935 114.617 656.806 127.603 640.575 127.603ZM198.34 45.7322V80.5221H214.284V64.6678H228.772V127.603H216.548V145.295H267.508V127.603H255.284V64.6678H269.777V80.5221H285.722V45.7322H198.34ZM697.586 45.7322V63.4297H707.329V127.603H697.586V145.295H774.105V110.511H758.161V127.603H732.596V103.743H752.9V86.0459H732.596V63.4297H758.161V80.5221H774.105V45.7322H697.586ZM195.404 127.603L169.419 45.7322H117.131V63.4241H128.459L108.089 127.603H99.3656V145.295H141.11V127.603H130.751L134.897 113.525H165.083L169.229 127.603H158.87V145.295H204.133V127.603H195.404ZM140.107 95.8331L149.654 64.0459H150.326L159.873 95.8331H140.107ZM586.219 127.603L560.235 45.7322H507.946V63.4241H519.274L498.903 127.603H490.18V145.295H531.924V127.603H521.565L525.711 113.525H555.898L560.043 127.603H549.684V145.295H594.948V127.603H586.219ZM530.922 95.8331L540.468 64.0459H541.141L550.687 95.8331H530.922ZM474.527 127.603V118.455C474.527 105.648 469.547 99.0431 458.297 97.1944V96.5389C470.174 93.0936 476.779 84.9871 476.779 72.6454C476.779 54.4661 461.832 45.7322 437.226 45.7322H393.532V63.4241H403.269V127.603H393.532V145.295H438.279V127.603H428.542V108.41H437.231C445.652 108.41 449.417 112.158 449.417 123.704V145.295H483.973V127.603H474.527ZM428.542 90.7182V63.4297H437.203C445.893 63.4297 450.761 68.3989 450.761 77.0768C450.761 85.7546 445.893 90.7238 437.203 90.7238H428.542V90.7182ZM389.391 95.5132C389.391 126.124 368.746 146.942 339.63 146.942C310.514 146.942 289.868 126.124 289.868 95.5132C289.868 64.9025 310.514 44.0846 339.63 44.0846C368.746 44.0846 389.391 64.9025 389.391 95.5132ZM339.624 65.2891C325.607 65.2891 316.374 76.4151 316.374 95.5132C316.374 114.611 325.607 125.737 339.624 125.737C353.642 125.737 362.875 114.611 362.875 95.5132C362.875 76.4151 353.642 65.2891 339.624 65.2891ZM50.7139 89.8039V107.496H67.8856V121.787C64.2608 123.894 59.7508 125.12 53.4704 125.12C39.0551 125.12 28.3039 113.513 28.3039 95.5182C28.3039 77.5238 39.677 65.916 54.0923 65.916C63.6502 65.916 71.0735 69.8375 75.4602 77.2157H91.405V44.0952H75.4602V49.8824C69.2863 45.9664 61.5884 44.0952 53.4704 44.0952C22.382 44.0952 0 64.9132 0 95.5238C0 126.134 22.382 146.952 53.4704 146.952C68.233 146.952 82.4074 143.457 93.153 135.838V89.8095H50.7139V89.8039Z" fill="white"/>
<defs>
<linearGradient id="paint0_linear_36_259" x1="-49.3806" y1="99.6745" x2="-48.8204" y2="99.6745" gradientUnits="userSpaceOnUse">
<stop stop-color="white"/>
</linearGradient>
</defs>
</svg>

<svg xmlns="http://www.w3.org/2000/svg" width="977" height="200" fill="none"><path fill="url(#a)" d="M805.85 199.35c5.569-14.174 46.075-116.499 46.075-116.499l-21.559 4.975 36.288-62.857L971.258 0l-25.536 30.65 30.915-7.322z"/><path fill="#fff" d="M643.684 45.732h-42.528v17.692h9.737v64.179h-9.737v17.692h42.528c29.122 0 49.762-19.171 49.762-49.781s-20.645-49.782-49.762-49.782m-3.109 81.871h-4.415V63.424h4.415c16.231 0 26.36 12.986 26.36 32.09 0 19.103-10.129 32.089-26.36 32.089M198.34 45.733v34.79h15.944V64.667h14.488v62.935h-12.224v17.692h50.96v-17.692h-12.224V64.668h14.493v15.854h15.945v-34.79zm499.246 0V63.43h9.743v64.173h-9.743v17.692h76.519v-34.784h-15.944v17.092h-25.565v-23.86H752.9V86.046h-20.304V63.43h25.565v17.092h15.944v-34.79zm-502.182 81.87-25.985-81.87h-52.288v17.691h11.328l-20.37 64.179h-8.723v17.692h41.744v-17.692h-10.359l4.146-14.078h30.186l4.146 14.078H158.87v17.692h45.263v-17.692zm-55.297-31.77 9.547-31.787h.672l9.547 31.787zm446.112 31.77-25.984-81.87h-52.289v17.691h11.328l-20.371 64.179h-8.723v17.692h41.744v-17.692h-10.359l4.146-14.078h30.187l4.145 14.078h-10.359v17.692h45.264v-17.692zm-55.297-31.77 9.546-31.787h.673l9.546 31.787zm-56.395 31.77v-9.148c0-12.807-4.98-19.412-16.23-21.26v-.656c11.877-3.445 18.482-11.552 18.482-23.894 0-18.179-14.947-26.913-39.553-26.913h-43.694v17.692h9.737v64.179h-9.737v17.692h44.747v-17.692h-9.737V108.41h8.689c8.421 0 12.186 3.748 12.186 15.294v21.591h34.556v-17.692zm-45.985-36.885V63.43h8.661c8.69 0 13.558 4.969 13.558 13.647s-4.868 13.647-13.558 13.647h-8.661zm-39.151 4.795c0 30.611-20.645 51.429-49.761 51.429s-49.762-20.818-49.762-51.429c0-30.61 20.646-51.428 49.762-51.428s49.761 20.818 49.761 51.428M339.624 65.29c-14.017 0-23.25 11.126-23.25 30.224s9.233 30.224 23.25 30.224c14.018 0 23.251-11.126 23.251-30.224s-9.233-30.224-23.251-30.224M50.714 89.804v17.692h17.172v14.291c-3.625 2.107-8.135 3.333-14.416 3.333-14.415 0-25.166-11.607-25.166-29.602 0-17.994 11.373-29.602 25.788-29.602 9.558 0 16.981 3.922 21.368 11.3h15.945v-33.12H75.46v5.786c-6.174-3.916-13.872-5.787-21.99-5.787C22.382 44.095 0 64.913 0 95.524c0 30.61 22.382 51.428 53.47 51.428 14.763 0 28.937-3.495 39.683-11.114V89.81h-42.44z"/><defs><linearGradient id="a" x1="-49.381" x2="-48.82" y1="99.674" y2="99.674" gradientUnits="userSpaceOnUse"><stop stop-color="#fff"/></linearGradient></defs></svg>
